X: 27817
T: Mortgage Burn, The
R: reel
M: 4/4
K: Gmajor
|:BDAD G~D3|BDAD GDEG|EGAB AGEG|C'ABG AGEG|
BDAD G~D3|BDAD GDEG|C'ABG AGEG|DEGA G4:|
|:B2AB D'GBD'|E'G'E'D' BAAG|A2GA B2AB|D'BAG EGGA|
[1 B2AB D'GBD'|E'G'E'D' BAAG|A2GA BAGE|DEGA G2GA:|
[2 BA|GEDE G2GA|BABD' E'2G'E'|E'D'BA AGAB|D'BAB G4||

